svgs/duotone/inboxes.svg

<svg xmlns="http://www.w3.org/2000/svg" viewBox="0 0 512 512"><!-- Font Awesome Pro 6.0.0-alpha2 by @fontawesome - https://fontawesome.com License - https://fontawesome.com/license (Commercial License) --><defs><style>.fa-secondary{opacity:.4}</style></defs><path d="M480 352H384L352 416H160L128 352H32C14.326 352 0 366.328 0 384V464C0 490.508 21.49 512 48 512H464C490.51 512 512 490.508 512 464V384C512 366.328 497.674 352 480 352ZM160 224H352L384 160H432.734L394.344 64H117.656L79.266 160H128L160 224Z" class="fa-secondary"/><path d="M507.713 180.883L445.719 20.125C440.844 7.969 429.094 0 416 0H96C82.906 0 71.156 7.969 66.281 20.125L4.287 180.883C1.453 188.23 0 196.039 0 203.914V272C0 298.508 21.49 320 48 320H464C490.51 320 512 298.508 512 272V203.914C512 196.039 510.547 188.23 507.713 180.883ZM384 160L352 224H160L128 160H79.266L117.656 64H394.344L432.734 160H384Z" class="fa-primary"/></svg>

<svg xmlns="http://www.w3.org/2000/svg" viewBox="0 0 512 512"><!--! Font Awesome Pro 6.3.0 by @fontawesome - https://fontawesome.com License - https://fontawesome.com/license (Commercial License) Copyright 2023 Fonticons, Inc. --><defs><style>.fa-secondary{opacity:.4}</style></defs><path class="fa-primary" d="M507.7 180.9l-61.99-160.8C440.8 7.969 429.1 0 416 0H96c-13.09 0-24.84 7.969-29.72 20.12L4.287 180.9C1.453 188.2 0 196 0 203.9V271.1c0 26.51 21.49 48 48 48h416c26.51 0 48-21.49 48-48V203.9C512 196 510.5 188.2 507.7 180.9zM384 160l-32 64H160L128 160H79.27l38.39-96h276.7l38.39 96H384z"/><path class="fa-secondary" d="M480 352h-96L352 416H160l-32-64H32c-17.67 0-32 14.33-32 32v80C0 490.5 21.49 512 48 512h416c26.51 0 48-21.49 48-48V384C512 366.3 497.7 352 480 352zM160 224h192l32-64h48.73l-38.39-96H117.7l-38.39 96H128L160 224z"/></svg>
